packages/icons/web/dashboard_filled_large.svg

<svg width="24" height="24" viewBox="0 0 24 24" fill="none" xmlns="http://www.w3.org/2000/svg">
<path fill-rule="evenodd" clip-rule="evenodd" d="M3.38148 4.91103C3 5.65972 3 6.63982 3 8.6V15.4C3 17.3602 3 18.3403 3.38148 19.089C3.71703 19.7475 4.25247 20.283 4.91103 20.6185C5.65972 21 6.63982 21 8.6 21H15.4C17.3602 21 18.3403 21 19.089 20.6185C19.7475 20.283 20.283 19.7475 20.6185 19.089C21 18.3403 21 17.3602 21 15.4V8.6C21 6.63982 21 5.65972 20.6185 4.91103C20.283 4.25247 19.7475 3.71703 19.089 3.38148C18.3403 3 17.3602 3 15.4 3H8.6C6.63982 3 5.65972 3 4.91103 3.38148C4.25247 3.71703 3.71703 4.25247 3.38148 4.91103ZM13 8C13 7.44772 12.5523 7 12 7C11.4477 7 11 7.44772 11 8V17H13V8ZM16.5 10C16.5 9.44772 16.0523 9 15.5 9C14.9477 9 14.5 9.44772 14.5 10V17H16.5V10ZM9.5 12C9.5 11.4477 9.05228 11 8.5 11C7.94772 11 7.5 11.4477 7.5 12V17H9.5V12Z" fill="#212933"/>
</svg>

<svg width="24" height="24" fill="none" xmlns="http://www.w3.org/2000/svg">
    <path fill-rule="evenodd" clip-rule="evenodd" d="M3.381 4.911C3 5.66 3 6.64 3 8.6v6.8c0 1.96 0 2.94.381 3.689a3.5 3.5 0 001.53 1.53C5.66 21 6.64 21 8.6 21h6.8c1.96 0 2.94 0 3.689-.381a3.5 3.5 0 001.53-1.53C21 18.34 21 17.36 21 15.4V8.6c0-1.96 0-2.94-.381-3.689a3.5 3.5 0 00-1.53-1.53C18.34 3 17.36 3 15.4 3H8.6c-1.96 0-2.94 0-3.689.381a3.5 3.5 0 00-1.53 1.53zM13 8a1 1 0 10-2 0v9h2V8zm3.5 2a1 1 0 10-2 0v7h2v-7zm-7 2a1 1 0 10-2 0v5h2v-5z" fill="currentColor"/>
</svg>
